icons/calendar-quarantine_fill.svg

<svg width="48" height="48" viewBox="0 0 48 48" fill="none" xmlns="http://www.w3.org/2000/svg">
<path d="M23.3 22C22.7477 22 22.3 22.4477 22.3 23C22.3 23.4478 22.5943 23.8268 23 23.9542V25.1C22.3616 25.2296 21.7674 25.4808 21.2426 25.8284L20.5142 25.1C20.8976 24.7089 20.8953 24.081 20.5071 23.6929C20.1166 23.3024 19.4834 23.3024 19.0929 23.6929L17.6929 25.0929C17.3024 25.4834 17.3024 26.1166 17.6929 26.5071C18.081 26.8952 18.7089 26.8976 19.1 26.5142L19.8284 27.2426C19.4808 27.7674 19.2296 28.3616 19.1 29H17.9542C17.8268 28.5943 17.4478 28.3 17 28.3C16.4477 28.3 16 28.7477 16 29.3V30.7C16 31.2523 16.4477 31.7 17 31.7C17.4478 31.7 17.8268 31.4057 17.9542 31H19.1C19.2296 31.6384 19.4808 32.2326 19.8284 32.7574L19.0999 33.4858C18.7089 33.1024 18.081 33.1048 17.6929 33.4929C17.3024 33.8834 17.3024 34.5166 17.6929 34.9071L19.0929 36.3071C19.4834 36.6977 20.1166 36.6977 20.5071 36.3071C20.8953 35.919 20.8976 35.2911 20.5142 34.9L21.2426 34.1716C21.7674 34.5192 22.3616 34.7704 23 34.9V36.0458C22.5943 36.1732 22.3 36.5522 22.3 37C22.3 37.5523 22.7477 38 23.3 38H23.9932L24 38L24.0068 38H24.7C25.2523 38 25.7 37.5523 25.7 37C25.7 36.5522 25.4057 36.1732 25 36.0458V34.9C25.808 34.736 26.5452 34.3771 27.1605 33.8747L28.1858 34.9C27.8024 35.2911 27.8047 35.919 28.1929 36.3071C28.5834 36.6977 29.2166 36.6977 29.6071 36.3071L31.0071 34.9071C31.3976 34.5166 31.3976 33.8834 31.0071 33.4929C30.619 33.1048 29.9911 33.1024 29.6001 33.4858L28.4317 32.3174C28.646 31.9084 28.8054 31.4659 28.9 31H30.0458C30.1732 31.4057 30.5522 31.7 31 31.7C31.5523 31.7 32 31.2523 32 30.7V29.3C32 28.7477 31.5523 28.3 31 28.3C30.5522 28.3 30.1732 28.5943 30.0458 29H28.9C28.7704 28.3616 28.5192 27.7674 28.1716 27.2426L28.9 26.5142C29.2911 26.8976 29.919 26.8952 30.3071 26.5071C30.6976 26.1166 30.6976 25.4834 30.3071 25.0929L28.9071 23.6929C28.5166 23.3024 27.8834 23.3024 27.4929 23.6929C27.1047 24.081 27.1024 24.7089 27.4858 25.1L26.7574 25.8284C26.2326 25.4808 25.6384 25.2296 25 25.1V23.9542C25.4057 23.8268 25.7 23.4478 25.7 23C25.7 22.4477 25.2523 22 24.7 22H23.3Z" fill="black"/>
<path fill-rule="evenodd" clip-rule="evenodd" d="M16 6C15.4477 6 15 6.44772 15 7V10H11C8.79086 10 7 11.7909 7 14V38C7 40.2091 8.79086 42 11 42H37C39.2091 42 41 40.2091 41 38V14C41 11.7909 39.2091 10 37 10H35V13C35 13.5523 34.5523 14 34 14C33.4477 14 33 13.5523 33 13V7C33 6.44772 32.5523 6 32 6C31.4477 6 31 6.44772 31 7V10H19V13C19 13.5523 18.5523 14 18 14C17.4477 14 17 13.5523 17 13V7C17 6.44772 16.5523 6 16 6ZM11 40C9.89543 40 9 39.1046 9 38V20H39V38C39 39.1046 38.1046 40 37 40H11Z" fill="black"/>
</svg>

<svg
  xmlns="http://www.w3.org/2000/svg"
  width="24"
  height="24"
  viewBox="0 0 24 24"
  fill="none"
  stroke="currentColor"
  stroke-width="2"
  stroke-linecap="round"
  stroke-linejoin="round"
>
  <path d="M23.3 22a1 1 0 0 0-.3 1.954V25.1c-.638.13-1.233.38-1.757.728l-.729-.728a1 1 0 0 0-1.421-1.407l-1.4 1.4a1 1 0 0 0 1.407 1.421l.728.729A5 5 0 0 0 19.1 29h-1.146a1 1 0 0 0-1.954.3v1.4a1 1 0 0 0 1.954.3H19.1c.13.638.38 1.233.728 1.757l-.728.729a1 1 0 0 0-1.407 1.421l1.4 1.4a1 1 0 0 0 1.421-1.407l.729-.728A5 5 0 0 0 23 34.9v1.146A1 1 0 0 0 23.3 38h1.4a1 1 0 0 0 .3-1.954V34.9a5 5 0 0 0 2.16-1.025l1.026 1.025a1 1 0 0 0 1.421 1.407l1.4-1.4a1 1 0 0 0-1.407-1.421l-1.168-1.169c.214-.409.373-.851.468-1.317h1.146A1 1 0 0 0 32 30.7v-1.4a1 1 0 0 0-1.954-.3H28.9a5 5 0 0 0-.728-1.757l.728-.729a1 1 0 0 0 1.407-1.421l-1.4-1.4a1 1 0 0 0-1.421 1.407l-.729.728A5 5 0 0 0 25 25.1v-1.146A1 1 0 0 0 24.7 22z" />
  <path
    fill-rule="evenodd"
    d="M16 6a1 1 0 0 0-1 1v3h-4a4 4 0 0 0-4 4v24a4 4 0 0 0 4 4h26a4 4 0 0 0 4-4V14a4 4 0 0 0-4-4h-2v3a1 1 0 1 1-2 0V7a1 1 0 1 0-2 0v3H19v3a1 1 0 1 1-2 0V7a1 1 0 0 0-1-1m-5 34a2 2 0 0 1-2-2V20h30v18a2 2 0 0 1-2 2z"
    clip-rule="evenodd"
  />
</svg>
